frontend/assets/images/svgs/copy-to-clipboard.svg

<svg xmlns="http://www.w3.org/2000/svg" width="25" height="29" viewBox="0 0 193.589 221.269" enable-background="new 0 0 193.589 221.269"><path fill="#fff" stroke="#000" stroke-width="8" stroke-miterlimit="10" d="M155.747 203.94c0 7.36-5.373 13.33-12 13.33h-127.747c-6.627 0-12-5.97-12-13.33v-141.913c0-7.362 5.373-13.33 12-13.33h127.747c6.627 0 12 5.967 12 13.33v141.91z"/><path stroke="#000" stroke-width="12" stroke-miterlimit="10" d="M25.905 175.55h107.937m-107.937-42.518h107.937m-107.937-42.52h107.937" fill="none"/><g stroke="#000" stroke-width="16" stroke-miterlimit="10" fill="none"><path d="M111.526 52.603h-63.306c0-24.633 7.02-44.603 31.655-44.603s31.652 19.97 31.652 44.603z"/><circle cx="79.874" cy="31.165" r="21.253"/></g><path fill="#fff" stroke="#fff" stroke-width="45" stroke-linecap="round" stroke-linejoin="round" stroke-miterlimit="10" d="M107.653 131.094h54.41"/><path fill="#fff" stroke="#fff" stroke-width="16" stroke-linecap="round" stroke-linejoin="round" stroke-miterlimit="10" d="M61.094 132.875l75.64 63.156v-126.315z"/><path stroke="#000" stroke-width="30" stroke-linecap="round" stroke-linejoin="round" stroke-miterlimit="10" d="M127.325 131.506h51.264" fill="none"/><path stroke="#000" stroke-width="16" stroke-linecap="round" stroke-linejoin="round" stroke-miterlimit="10" d="M72.375 132.873l58.09 48.502v-97.007z"/></svg>

<svg xmlns="http://www.w3.org/2000/svg" width="25" height="29" viewBox="0 0 193.589 221.269" enable-background="new 0 0 193.589 221.269"><path fill="#fff" stroke="#000" stroke-width="8" stroke-miterlimit="10" d="M155.747 203.94c0 7.36-5.373 13.33-12 13.33H16c-6.627 0-12-5.97-12-13.33V62.027c0-7.362 5.373-13.33 12-13.33h127.747c6.627 0 12 5.967 12 13.33v141.91z"/><path fill="none" stroke="#000" stroke-width="12" stroke-miterlimit="10" d="M25.905 175.55h107.937M25.905 133.032h107.937M25.905 90.512h107.937"/><g fill="none" stroke="#000" stroke-width="16" stroke-miterlimit="10"><path stroke-linejoin="round" d="M111.526 52.603H48.22C48.22 27.97 55.24 8 79.875 8s31.652 19.97 31.652 44.603z"/><circle cx="79.874" cy="31.165" r="21.253"/></g><path fill="#fff" stroke="#fff" stroke-width="45" stroke-linecap="round" stroke-linejoin="round" stroke-miterlimit="10" d="M107.653 131.094h54.41"/><path fill="#fff" stroke="#fff" stroke-width="16" stroke-linecap="round" stroke-linejoin="round" stroke-miterlimit="10" d="M61.094 132.875l75.64 63.156V69.716z"/><path fill="none" stroke="#000" stroke-width="30" stroke-linecap="round" stroke-linejoin="round" stroke-miterlimit="10" d="M127.325 131.506h51.264"/><path stroke="#000" stroke-width="16" stroke-linecap="round" stroke-linejoin="round" stroke-miterlimit="10" d="M72.375 132.873l58.09 48.502V84.368z"/></svg>
